dist/img/addtocart.svg

<svg width="48" height="48" viewBox="0 0 48 48" fill="none" xmlns="http://www.w3.org/2000/svg">
<path d="M47.9469 12.5043L44.7023 27.2131C44.3361 28.875 43.4081 30.3761 42.0897 31.4407C40.7673 32.5085 39.1014 33.0967 37.3993 33.0967C36.364 33.0967 35.5247 32.2573 35.5247 31.222C35.5247 30.1864 36.364 29.3474 37.3993 29.3474C39.1615 29.3474 40.6589 28.1378 41.0413 26.4056L44.2855 11.6968C44.5085 10.6857 45.5087 10.0466 46.5201 10.2697C47.5312 10.4927 48.1699 11.4932 47.9469 12.5043ZM42.9294 42.4698C42.9294 45.5193 40.4487 48 37.3993 48C34.3498 48 31.8691 45.5193 31.8691 42.4698C31.8691 41.8469 31.9742 41.2482 32.165 40.689H24.0747C24.2655 41.2482 24.3706 41.8469 24.3706 42.4698C24.3706 45.5193 21.8895 48 18.8401 48C15.791 48 13.3099 45.5193 13.3099 42.4698C13.3099 41.8469 13.415 41.2482 13.6058 40.689H12.8412C9.74048 40.689 7.21728 38.1661 7.21728 35.0651C7.21728 35.049 7.21948 35.0339 7.21985 35.0182C7.21948 35.0024 7.21728 34.9871 7.21728 34.9713C7.21728 32.6957 8.57666 30.7332 10.5249 29.8484L8.29651 9.37537C7.86621 6.17175 5.10901 3.75842 1.87463 3.75842C0.839355 3.75842 0 2.91907 0 1.88379C0 0.848145 0.839355 0.00915527 1.87463 0.00915527C6.99097 0.00915527 11.3511 3.83459 12.0165 8.90698L12.0212 8.94836L14.2419 29.3474H28.0261C29.0614 29.3474 29.9008 30.1868 29.9008 31.222C29.9008 32.2573 29.0614 33.0967 28.0261 33.0967H12.8412C11.8077 33.0967 10.9666 33.9375 10.9666 34.9713C10.9666 34.9871 10.9647 35.0024 10.9644 35.0182C10.9647 35.0339 10.9666 35.0493 10.9666 35.0651C10.9666 36.0989 11.8077 36.9397 12.8412 36.9397H37.3993C40.4487 36.9397 42.9294 39.4204 42.9294 42.4698ZM18.8401 40.689C17.8583 40.689 17.0592 41.4877 17.0592 42.4698C17.0592 43.452 17.8583 44.2507 18.8401 44.2507C19.8223 44.2507 20.621 43.452 20.621 42.4698C20.621 41.4877 19.8223 40.689 18.8401 40.689ZM39.1802 42.4698C39.1802 41.4877 38.3811 40.689 37.3993 40.689C36.4171 40.689 35.6184 41.4877 35.6184 42.4698C35.6184 43.452 36.4171 44.2507 37.3993 44.2507C38.3811 44.2507 39.1802 43.4517 39.1802 42.4698ZM15.7632 11.9524C15.0685 11.1848 15.1274 9.99939 15.895 9.30469L24.6306 1.39856C26.6741 -0.466187 29.7528 -0.466187 31.7963 1.39856L40.5319 9.30469C41.2994 9.99939 41.3584 11.1848 40.6637 11.9524C40.2938 12.3615 39.7844 12.5691 39.2732 12.5691C38.9147 12.5691 38.5558 12.4651 38.2427 12.2582V17.5983C38.2427 20.5104 35.8751 22.8798 32.9652 22.8798H23.3679C20.458 22.8798 18.0905 20.5104 18.0905 17.5983V12.3175C17.3412 12.7507 16.3671 12.6196 15.7632 11.9524ZM21.8339 8.98645C21.8361 9.02454 21.8397 9.06262 21.8397 9.10107V17.5979C21.8397 18.4431 22.5253 19.1305 23.3679 19.1305H32.9652C33.8079 19.1305 34.4934 18.4431 34.4934 17.5979V9.10107C34.4934 9.03516 34.4971 8.96997 34.5037 8.90588L29.2771 4.17554C29.2749 4.17334 29.2723 4.17114 29.2701 4.16895C28.6677 3.61853 27.7592 3.61853 27.1567 4.16895C27.1545 4.17114 27.1523 4.17334 27.1501 4.17554L21.8339 8.98645Z" fill="#3B3C45"/>
<mask id="mask0_2_576" style="mask-type:alpha" maskUnits="userSpaceOnUse" x="0" y="0" width="48" height="48">
<path d="M47.9469 12.5043L44.7023 27.2131C44.3361 28.875 43.4081 30.3761 42.0897 31.4407C40.7673 32.5085 39.1014 33.0967 37.3993 33.0967C36.364 33.0967 35.5247 32.2573 35.5247 31.222C35.5247 30.1864 36.364 29.3474 37.3993 29.3474C39.1615 29.3474 40.6589 28.1378 41.0413 26.4056L44.2855 11.6968C44.5085 10.6857 45.5087 10.0466 46.5201 10.2697C47.5312 10.4927 48.1699 11.4932 47.9469 12.5043ZM42.9294 42.4698C42.9294 45.5193 40.4487 48 37.3993 48C34.3498 48 31.8691 45.5193 31.8691 42.4698C31.8691 41.8469 31.9742 41.2482 32.165 40.689H24.0747C24.2655 41.2482 24.3706 41.8469 24.3706 42.4698C24.3706 45.5193 21.8895 48 18.8401 48C15.791 48 13.3099 45.5193 13.3099 42.4698C13.3099 41.8469 13.415 41.2482 13.6058 40.689H12.8412C9.74048 40.689 7.21728 38.1661 7.21728 35.0651C7.21728 35.049 7.21948 35.0339 7.21985 35.0182C7.21948 35.0024 7.21728 34.9871 7.21728 34.9713C7.21728 32.6957 8.57666 30.7332 10.5249 29.8484L8.29651 9.37537C7.86621 6.17175 5.10901 3.75842 1.87463 3.75842C0.839355 3.75842 0 2.91907 0 1.88379C0 0.848145 0.839355 0.00915527 1.87463 0.00915527C6.99097 0.00915527 11.3511 3.83459 12.0165 8.90698L12.0212 8.94836L14.2419 29.3474H28.0261C29.0614 29.3474 29.9008 30.1868 29.9008 31.222C29.9008 32.2573 29.0614 33.0967 28.0261 33.0967H12.8412C11.8077 33.0967 10.9666 33.9375 10.9666 34.9713C10.9666 34.9871 10.9647 35.0024 10.9644 35.0182C10.9647 35.0339 10.9666 35.0493 10.9666 35.0651C10.9666 36.0989 11.8077 36.9397 12.8412 36.9397H37.3993C40.4487 36.9397 42.9294 39.4204 42.9294 42.4698ZM18.8401 40.689C17.8583 40.689 17.0592 41.4877 17.0592 42.4698C17.0592 43.452 17.8583 44.2507 18.8401 44.2507C19.8223 44.2507 20.621 43.452 20.621 42.4698C20.621 41.4877 19.8223 40.689 18.8401 40.689ZM39.1802 42.4698C39.1802 41.4877 38.3811 40.689 37.3993 40.689C36.4171 40.689 35.6184 41.4877 35.6184 42.4698C35.6184 43.452 36.4171 44.2507 37.3993 44.2507C38.3811 44.2507 39.1802 43.4517 39.1802 42.4698ZM15.7632 11.9524C15.0685 11.1848 15.1274 9.99939 15.895 9.30469L24.6306 1.39856C26.6741 -0.466187 29.7528 -0.466187 31.7963 1.39856L40.5319 9.30469C41.2994 9.99939 41.3584 11.1848 40.6637 11.9524C40.2938 12.3615 39.7844 12.5691 39.2732 12.5691C38.9147 12.5691 38.5558 12.4651 38.2427 12.2582V17.5983C38.2427 20.5104 35.8751 22.8798 32.9652 22.8798H23.3679C20.458 22.8798 18.0905 20.5104 18.0905 17.5983V12.3175C17.3412 12.7507 16.3671 12.6196 15.7632 11.9524ZM21.8339 8.98645C21.8361 9.02454 21.8397 9.06262 21.8397 9.10107V17.5979C21.8397 18.4431 22.5253 19.1305 23.3679 19.1305H32.9652C33.8079 19.1305 34.4934 18.4431 34.4934 17.5979V9.10107C34.4934 9.03516 34.4971 8.96997 34.5037 8.90588L29.2771 4.17554C29.2749 4.17334 29.2723 4.17114 29.2701 4.16895C28.6677 3.61853 27.7592 3.61853 27.1567 4.16895C27.1545 4.17114 27.1523 4.17334 27.1501 4.17554L21.8339 8.98645Z" fill="#3B3C45"/>
</mask>
<g mask="url(#mask0_2_576)">
<rect x="15" y="-8" width="26" height="32" fill="#F7A804"/>
</g>
</svg>

<svg width="48" height="48" viewBox="0 0 48 48" fill="none" xmlns="http://www.w3.org/2000/svg"><path d="M47.96 12.5L44.7 27.21a7.5 7.5 0 01-7.3 5.88 1.87 1.87 0 110-3.74 3.71 3.71 0 003.64-2.94l3.24-14.71a1.88 1.88 0 013.67.8zm-5.02 29.97a5.54 5.54 0 11-10.77-1.78h-8.1a5.54 5.54 0 11-10.47 0h-.76a5.63 5.63 0 01-5.62-5.62v-.05-.05a5.63 5.63 0 013.3-5.12L8.3 9.38a6.5 6.5 0 00-6.43-5.62 1.87 1.87 0 110-3.75C7 0 11.35 3.83 12.02 8.9v.04l2.22 20.4h13.8a1.87 1.87 0 110 3.75h-15.2c-1.03 0-1.87.84-1.87 1.87v.1c0 1.03.84 1.87 1.87 1.87h24.57a5.54 5.54 0 015.53 5.53zm-24.1-1.78a1.78 1.78 0 100 3.57 1.78 1.78 0 000-3.57zm20.35 1.78a1.78 1.78 0 10-3.57 0 1.78 1.78 0 003.57 0zM15.77 11.95c-.7-.77-.64-1.95.13-2.65l8.74-7.9a5.29 5.29 0 017.16 0l8.74 7.9a1.87 1.87 0 01-2.29 2.96v5.34a5.29 5.29 0 01-5.28 5.28h-9.6a5.29 5.29 0 01-5.28-5.28v-5.28c-.75.43-1.72.3-2.32-.37zM21.84 9v8.61c0 .84.69 1.53 1.53 1.53h9.6c.84 0 1.53-.69 1.53-1.53V9.1l.01-.2-5.23-4.72v-.01a1.56 1.56 0 00-2.12 0L21.84 9z" fill="#3B3C45"/><mask id="a" style="mask-type:alpha" maskUnits="userSpaceOnUse" x="0" y="0" width="48" height="48"><path d="M47.96 12.5L44.7 27.21a7.5 7.5 0 01-7.3 5.88 1.87 1.87 0 110-3.74 3.71 3.71 0 003.64-2.94l3.24-14.71a1.88 1.88 0 013.67.8zm-5.02 29.97a5.54 5.54 0 11-10.77-1.78h-8.1a5.54 5.54 0 11-10.47 0h-.76a5.63 5.63 0 01-5.62-5.62v-.05-.05a5.63 5.63 0 013.3-5.12L8.3 9.38a6.5 6.5 0 00-6.43-5.62 1.87 1.87 0 110-3.75C7 0 11.35 3.83 12.02 8.9v.04l2.22 20.4h13.8a1.87 1.87 0 110 3.75h-15.2c-1.03 0-1.87.84-1.87 1.87v.1c0 1.03.84 1.87 1.87 1.87h24.57a5.54 5.54 0 015.53 5.53zm-24.1-1.78a1.78 1.78 0 100 3.57 1.78 1.78 0 000-3.57zm20.35 1.78a1.78 1.78 0 10-3.57 0 1.78 1.78 0 003.57 0zM15.77 11.95c-.7-.77-.64-1.95.13-2.65l8.74-7.9a5.29 5.29 0 017.16 0l8.74 7.9a1.87 1.87 0 01-2.29 2.96v5.34a5.29 5.29 0 01-5.28 5.28h-9.6a5.29 5.29 0 01-5.28-5.28v-5.28c-.75.43-1.72.3-2.32-.37zM21.84 9v8.61c0 .84.69 1.53 1.53 1.53h9.6c.84 0 1.53-.69 1.53-1.53V9.1l.01-.2-5.23-4.72v-.01a1.56 1.56 0 00-2.12 0L21.84 9z" fill="#3B3C45"/></mask><g mask="url(#a)"><path fill="#F7A804" d="M15-8h26v32H15z"/></g></svg>
